X: 42452
T: Westmeath Hunt, The
R: reel
M: 4/4
K: Gmajor
|:gB~B2 gBaB|gB~B2 dBAB|gB~B2 gbag|1 f2ef d2ef:|2 f2ef d2BA||
|:GBBA G3D|GB~B2 dBAB|GBBA G2ag|1 fdef dBBA:|2 fdef defg||
|:a2(3fed adfd|adfd edBd|1 a2(3fed adfd|
egfd edBd:|2 a3b afd2|eafd deed||
|:g3g gd(3Bcd|g2gd BGBd|g3g gbag|f2ef d2ef:|

